icons_vscode/valgrind.svg

<?xml version="1.0" encoding="UTF-8" standalone="no"?>
<!-- Created with Inkscape (http://www.inkscape.org/) -->

<svg
   width="66.79538mm"
   height="57.392578mm"
   viewBox="0 0 66.79538 57.392579"
   version="1.1"
   id="svg5"
   inkscape:version="1.3 (0e150ed6c4, 2023-07-21)"
   xml:space="preserve"
   sodipodi:docname="valgrind.svg"
   xmlns:inkscape="http://www.inkscape.org/namespaces/inkscape"
   xmlns:sodipodi="http://sodipodi.sourceforge.net/DTD/sodipodi-0.dtd"
   xmlns="http://www.w3.org/2000/svg"
   xmlns:svg="http://www.w3.org/2000/svg"><sodipodi:namedview
     id="namedview7"
     pagecolor="#222222"
     bordercolor="#eeeeee"
     borderopacity="1"
     inkscape:pageshadow="0"
     inkscape:pageopacity="0"
     inkscape:pagecheckerboard="0"
     inkscape:document-units="mm"
     showgrid="false"
     fit-margin-top="0"
     fit-margin-left="0"
     fit-margin-right="0"
     fit-margin-bottom="0"
     inkscape:showpageshadow="0"
     inkscape:deskcolor="#d1d1d1"
     inkscape:zoom="0.70710678"
     inkscape:cx="112.42998"
     inkscape:cy="86.974134"
     inkscape:window-width="1920"
     inkscape:window-height="1011"
     inkscape:window-x="1920"
     inkscape:window-y="32"
     inkscape:window-maximized="1"
     inkscape:current-layer="layer1" /><defs
     id="defs2" /><g
     inkscape:label="Layer 1"
     inkscape:groupmode="layer"
     id="layer1"
     transform="translate(-154.25251,-164.84454)"
     style="display:inline"><path
       id="path213"
       style="font-size:76.2691px;line-height:1.25;font-family:Compacta;-inkscape-font-specification:Compacta;font-variant-ligatures:none;letter-spacing:-1.30293px;fill:#be5946;fill-opacity:1;stroke-width:3.17789"
       d="M 176.64287 193.60919 L 187.83651 219.36731 L 189.2142 219.36731 L 199.77221 193.60919 L 196.34193 193.60919 L 190.51748 207.89721 L 184.31734 193.60919 L 176.64287 193.60919 z " /><g
       id="g213"
       style="fill:#e6876a;fill-opacity:1"><path
         id="text212"
         style="font-size:76.2691px;line-height:1.25;font-family:Compacta;-inkscape-font-specification:Compacta;font-variant-ligatures:none;letter-spacing:-1.30293px;fill:#e6876a;fill-opacity:1;stroke-width:3.17789"
         d="M 196.34193 193.60919 L 199.77221 193.60919 L 206.82915 176.39164 C 207.84706 173.8841 209.01387 172.02195 210.32971 170.80542 C 211.24831 169.98612 212.60134 169.4151 214.38889 169.09234 L 214.38889 167.71413 L 198.8224 167.71413 L 198.8224 169.09234 C 199.12033 169.142 199.3313 169.17914 199.45544 169.20396 C 201.16851 169.47706 202.38535 169.94905 203.10534 170.61938 C 203.82533 171.26489 204.18486 171.94733 204.18486 172.66732 C 204.18486 173.78454 203.60146 175.78338 202.43458 178.66333 L 196.34193 193.60919 z " /><path
         id="path212"
         style="font-size:76.2691px;line-height:1.25;font-family:Compacta;-inkscape-font-specification:Compacta;font-variant-ligatures:none;letter-spacing:-1.30293px;fill:#e6876a;fill-opacity:1;stroke-width:3.17789"
         d="M 176.64287 193.60919 L 184.31734 193.60919 L 177.66969 178.29075 C 176.52764 175.65907 175.95661 173.72264 175.95661 172.48128 C 175.95661 171.58751 176.30428 170.85503 176.99944 170.284 C 177.6946 169.71298 179.20908 169.31579 181.54283 169.09234 L 181.54283 167.71413 L 160.91154 167.71413 L 160.91154 169.09234 C 162.45082 169.21648 163.66715 169.50173 164.56092 169.94862 C 165.47953 170.37068 166.24915 170.96698 166.86983 171.73663 C 167.26706 172.23317 167.95002 173.59857 168.91828 175.83302 L 176.64287 193.60919 z " /></g></g></svg>

<svg xmlns="http://www.w3.org/2000/svg" xml:space="preserve" width="252.455" height="216.917" viewBox="0 0 66.795 57.393"><g style="display:inline"><path d="m176.643 193.61 11.194 25.757h1.377l10.558-25.758h-3.43l-5.825 14.288-6.2-14.288z" style="font-size:76.2691px;line-height:1.25;font-family:Compacta;-inkscape-font-specification:Compacta;font-variant-ligatures:none;letter-spacing:-1.30293px;fill:#be5946;fill-opacity:1;stroke-width:3.17789" transform="translate(-154.253 -164.845)"/><g style="fill:#e6876a;fill-opacity:1"><path d="M196.342 193.61h3.43l7.057-17.218q1.527-3.762 3.5-5.587 1.379-1.228 4.06-1.713v-1.378h-15.567v1.378q.448.075.633.112 2.57.41 3.65 1.415 1.08.968 1.08 2.048 0 1.677-1.75 5.996zM176.643 193.61h7.674l-6.647-15.32q-1.713-3.946-1.713-5.809 0-1.34 1.042-2.197 1.043-.856 4.544-1.192v-1.378h-20.631v1.378q2.308.186 3.649.857a6.3 6.3 0 0 1 2.309 1.788q.596.745 2.048 4.096z" style="font-size:76.2691px;line-height:1.25;font-family:Compacta;-inkscape-font-specification:Compacta;font-variant-ligatures:none;letter-spacing:-1.30293px;fill:#e6876a;fill-opacity:1;stroke-width:3.17789" transform="translate(-154.253 -164.845)"/></g></g></svg>
